!!!COM: Beethoven, Ludwig van
!!!CDT: 1770///-1827///
!!!OTL: Piano Sonata no. 24 in F-sharp major
!!!OTP:	&agrave; Th&eacute;r&egrave;se
!!!ODT: 1809///
!!!OPS: 78
!!!OMV: 1
!!!OMD: Adagio cantabile---Allegro ma non troppo
**kern	**kern	**dynam
*staff2	*staff1	*staff1/2
*Ipiano	*Ipiano	*Ipiano
*>[I,A,A1,A,A2,B,B1,B,B2]	*>[I,A,A1,A,A2,B,B1,B,B2]	*>[I,A,A1,A,A2,B,B1,B,B2]
*>norep[I,A,A2,B,B2]	*>norep[I,A,A2,B,B2]	*>norep[I,A,A2,B,B2]
*>I	*>I	*>I
*clefF4	*clefG2	*clefG2
*k[f#c#g#d#a#e#]	*k[f#c#g#d#a#e#]	*k[f#c#g#d#a#e#]
*F#:	*F#:	*F#:
*M2/4	*M2/4	*M2/4
*MM60	*MM60	*MM60
=1-	=1-	=1-
2FFF#/ 2FF#/	4A#/ (4c#/	pp
.	8.A#/ 8.c#/ 8.f#/L	.
.	16B/ 16e#/ 16g#/Jk)	.
=2	=2	=2
2FFF#/ 2FF#/	4B/ 4e#/ (4g#/	.
.	8c#/ 8f#/ 8a#/L	.
.	8c#/ 8en/ 8a#/J)	.
=3	=3	=3
*	*^	*
2FFF#/ 2FF#/	4b/	4d#\ 4f#\	.
.	8.dd#/L	4e#\ 4g#\	.
.	16cc#/Jk	.	.
*	*v	*v	*
=4	=4	=4
*	*^	*
*	*	*^	*
4FFF#;/ 4FF#;/	(32b/LLL	8f#\	2r	.
*	*	*v	*v	*
.	32a#/	.	.
.	32dd#/	.	.
.	32cc#/JJJ	.	.
.	8cc#;/)	8r	.
*MM120	*MM120	*MM120	*MM120
4r	4r	(8.a#/L	p
.	.	16b/Jk)	.
*	*v	*v	*
=5	=5	=5
*M4/4	*M4/4	*M4/4
*	*^	*
(8FF#\L	4cc#/	4r	.
8F#\	.	.	.
8A#\	4f#/	4c#\	.
8F#\J	.	.	.
8B\L	4e#/	4c#\	.
8F#\	.	.	.
8A#\	4f#/	4c#\	.
8F#\J)	.	.	.
*	*v	*v	*
=6!|:	=6!|:	=6!|:
*>A	*>A	*>A
8G#\L	2.B/ 2.c#/ 2.e#/ 2.b/	.
8C#\	.	.
8G#\	.	.
8C#\J	.	.
8G#\L	.	.
8C#\	.	.
8E#\	4G#/ 4c#/ (4g#/	.
8C#\J	.	.
=7	=7	=7
*^	*	*
8FF#/L	2.FF#\	4A#/ 4c#/ 4a#/	<
8F#/	.	.	.
8BB/	.	4d#/ 4dd#/	.
8F#/J	.	.	.
8AA#/L	.	4c#/ 4cc#/	.
8F#/	.	.	.
8D#/	4FF#\	4f#/ 4ff#/	.
8F#/J	.	.	.
=8	=8	=8	=8
8C#/L	4FF#\	4e#/ 4ee#/	>
8F#/	.	.	.
8BB/	4FF#\	4d#/ 4dd#/	.
8F#/J	.	.	.
8AA#/L	4FF#\	4c#/ 4cc#/)	.
8F#/J	.	.	.
4r	4r	16a#/LL	.
.	.	16b/	.
.	.	16a#/	.
.	.	16f#/JJ	.
*v	*v	*	*
=9	=9	=9
4r	16b/LL	.
.	16cc#/	.
.	16b/	.
.	16g#/JJ	.
16C#\LL	4e#/	.
16E#\	.	.
16G#\	.	.
16B\JJ	.	.
4C#/	4r	.
4r	16b/LL	.
.	16cc#/	.
.	16b/	.
.	16g#/JJ	.
=10	=10	=10
4r	16cc#\LL	.
.	16dd#\	.
.	16cc#\	.
.	16a#\JJ	.
16AA#\LL	4f#/	.
16C#\	.	.
16F#\	.	.
16A#\JJ	.	.
4AA#/	4r	.
12FF#/L	(12ff#\L	<
12GG#/	12ee#\	.
12AA#/J	12dd#\J	.
=11	=11	=11
*^	*	*
2BB/	2r	12cc#\L	.
.	.	12b\	.
.	.	12a#\J)	.
.	.	(12g#/L	.
.	.	12f#/	.
.	.	12e#/J	.
(4C#/	2C#\	12d#/L	.
.	.	12c#/	.
.	.	12B#/J	.
4Bn/)	.	12c#/L	.
.	.	12d#/	.
.	.	12e#/J)	.
*v	*v	*	*
=12	=12	=12
4F#\ (4A#\	4c#/ (4f#/	p
4C#\ 4G#\	4c#/ 4e#/ 4g#/	.
4FF#\ 4F#\)	4c#/ 4f#/ 4a#/)	.
4r	4r	.
=13	=13	=13
4F#\ 4A#\	4c#/ 4f#/ 4a#/	.
4r	4r	.
4BB\ 4D#\ 4G#\	4d#/ 4g#/ 4b/	.
4r	4r	.
=14	=14	=14
(4C#/	4c#/ 4e#/ (4g#/	.
4FF#/	4c#/ 4f#/ 4a#/	.
4CC#/)	4c#/ 4g#/ 4b/)	.
4r	4r	.
=15	=15	=15
4E#\ 4G#\ 4B\	4c#/ 4g#/ 4b/	.
4r	4r	.
4C#\ 4E#\ 4G#\ 4B\	4c#/ 4e#/ 4g#/ 4cc#/	.
4r	4r	.
=16	=16	=16
4F#\ 4A#\	4c#/ 4f#/ 4a#/	.
4r	16cc#\LL	.
.	16dd#\	.
.	16cc#\	.
.	16a#\JJ	.
4r	[2ff#\	.
*clefG2	*	*
(4f#/ 4a#/	.	.
=17	=17	=17
2.g#/) 2.b/	4ff#\]	.
.	8.ee#\L	.
.	16ff#\Jk	.
.	4gg#\	.
4g#/ 4b/	4ee#\	.
=18	=18	=18
([2g#/ 2a#/	16cc##\LL	p
.	16bb\	.
.	16aa#\	.
.	16cc##\JJ	.
.	16cc##\LL	.
.	16bb\	.
.	16aa#\	.
.	16cc##\JJ	.
4e#/) 4g#/]	16cc##\LL	.
.	16bb\	.
.	16aa#\	.
.	16cc##\JJ	.
4A#/ 4e#/ 4g#/	16cc##\LL	.
.	16bb\	.
.	16aa#\	.
.	16cc##\JJ	.
=19	=19	=19
4A#/ 4d#/ (4f#/	16dd#\LL	.
.	16bb\	.
.	16aa#\	.
.	16dd#\JJ	.
4G#/ 4c##/ 4e#/	16ee#\LL	.
.	16bb\	.
.	16aa#\	.
.	16ee#\JJ	.
*clefF4	*	*
4F#\ 4A#\ 4d#\)	16ff#\LL	.
.	16bb\	.
.	16aa#\	.
.	16ff#\JJ	.
4F#\ 4A#\ 4d#\	16ddd#\LL	.
.	16aa#\	.
.	16ff#\	.
.	16dd#\JJ	.
=20	=20	=20
4F#^\ 4G##^\ 4d#^\	16bb#\LL	.
.	16ff#\	.
.	16dd#\	.
.	16bb#\JJ	.
4F#\ 4G#\ 4d#\	16ddd#\LL	.
.	16ff#\	.
.	16dd#\	.
.	16ccc#\JJ	.
4F#^\ 4G##^\ 4d#^\	16bb#\LL	.
.	16ff#\	.
.	16dd#\	.
.	16bb#\JJ	.
4F#\ 4G#\ 4d#\	16ddd#\LL	.
.	16ff#\	.
.	16dd#\	.
.	16ccc#\JJ	.
=21	=21	=21
4F#^\ 4G##^\ 4d#^\	16bb#\LL	.
.	16ff#\	.
.	16dd#\	.
.	16bb#\JJ	.
4F#\ 4G#\ 4d#\	16ddd#\LL	.
.	16ff#\	.
.	16dd#\	.
.	16ddd#\JJ	.
4r	16gg#\LL	.
.	16ff#\	.
.	16dd#\	.
.	16gg#\JJ	.
4F#\ 4A#\ 4d#\	16aa#\LL	.
.	16ff#\	.
.	16dd#\	.
.	16aa#\JJ	.
=22	=22	=22
4F#^\ 4G##^\ 4d#^\	16bb#\LL	.
.	16ff#\	.
.	16dd#\	.
.	16bb#\JJ	.
4F#\ 4G#\ 4d#\	16ddd#\LL	.
.	16ff#\	.
.	16dd#\	.
.	16ccc#\JJ	.
4F#^\ 4G##^\ 4d#^\	16bb#\LL	.
.	16ff#\	.
.	16dd#\	.
.	16bb#\JJ	.
4F#\ 4G#\ 4d#\	16ddd#\LL	.
.	16ff#\	.
.	16dd#\	.
.	16ccc#\JJ	.
=23	=23	=23
4F#^\ 4G##^\ 4d#^\	16bb#\LL	.
.	16ff#\	.
.	16dd#\	.
.	16bb#\JJ	.
4F#\ 4G#\ 4d#\	16ddd#\LL	.
.	16ff#\	.
.	16dd#\	.
.	16ddd#\JJ	.
4r	16gg#\LL	.
.	16ff#\	.
.	16dd#\	.
.	16gg#\JJ	.
4F#\ 4A#\ 4d#\	16aa#\LL	.
.	16ff#\	.
.	16dd#\	.
.	16aa#\JJ	.
=24	=24	=24
4F#\ 4G#\ 4d#\	16bb#\LL	<
.	16gg#\	.
.	16dd#\	.
.	16bb#\JJ	.
4E#\ 4G#\ 4c#\	(16ccc#\LL	.
.	16gg#\	.
.	16cc#\	.
.	16ccc#'\JJ)	.
4E#\ 4G#\ 4c#\	(16ccc#\LL	.
.	16gg#\	.
.	16cc#\	.
.	16ccc#'\JJ)	.
4E#\ 4G#\ 4c#\	(16ccc#\LL	.
.	16gg#\	.
.	16cc#\	.
.	16ccc#'\JJ)	.
=25	=25	=25
4En\ 4Gn\ 4c#\	(16ccc#\LL	.
.	16ff##\	.
.	16cc#\	.
.	16ccc#\JJ)	.
4E\ 4G\ 4c#\	(16ccc#\LL	.
.	16ff##\	.
.	16cc#\	.
.	16ccc#'\JJ)	.
4E\ 4G\ 4c#\	(16ccc#\LL	.
.	16ff##\	.
.	16cc#\	.
.	16ccc#'\JJ)	.
4E\ 4G\ 4c#\	(16ccc#\LL	.
.	16ff##\	.
.	16cc#\	.
.	16ccc#'\JJ)	.
=26	=26	=26
4AAn\ 4C#\ 4En\ 4Gn\	(16ccc#\LL	f
.	16ff##\	.
.	16cc#\	.
.	16ccc#'\JJ)	.
4AA\ 4C#\ 4E\ 4G\	(16ccc#\LL	.
.	16ff##\	.
.	16cc#\	.
.	16ccc#'\JJ)	.
4AA\ 4C#\ 4E\ 4G\	(16ccc#\LL	.
.	16ff##\	.
.	16cc#\	.
.	16ccc#'\JJ)	.
4AA\ 4C#\ 4E\ 4G\	(16ccc#\LL	.
.	16ff##\	.
.	16cc#\	.
.	16ccc#'\JJ)	.
=27	=27	=27
1G# 1d#	(16ccc#\LL	ff
.	16ff#\	.
.	16cc#\	.
.	16ccc#'\JJ)	.
.	(16ccc#\LL	.
.	16ff#\	.
.	16cc#\	.
.	16ccc#'\JJ)	.
.	(16bb#\LL	.
.	16ff#\	.
.	16b#\	.
.	16bb#'\JJ)	.
.	(16bb#'\LL	.
.	16ff#\	.
.	16b#\	.
.	16bb#'\JJ)	.
=28	=28	=28
4C#\ 4c#\	4cc#\ 4ee#\ 4ccc#\	.
4r	4r	.
*clefG2	*	*
(12c#/L	(12ee#\L	p
12d#/	12cc#\	.
12e#/J	12g#\J	.
12f#/L	12a#\L	.
12c#/	12cc#\	.
12f#/J	12a#\J)	.
=29	=29	=29
*^	*	*
4c#/) 4e#/	4r	12g#\L	.
.	.	12cc#\	.
.	.	12dd#\J	.
4r	4r	12ee#\L	.
.	.	12cc#\	.
.	.	12gg#\J	.
*v	*v	*	*
*clefF4	*	*
*^	*	*
(12C#/L	4r	12ee#\L	.
12D#/	.	12cc#\	.
12E#/J	.	12g#\J	.
12F#/L	4GG#\	12f#/L	.
12D#/	.	12d#/	.
12G#/J	.	12g#/J	.
=30	=30	=30	=30
4E#/)	4C#\	4e#/	.
4r	4r	12g#\L	.
.	.	12cc#\	.
.	.	12dd#\J	.
*v	*v	*	*
*clefG2	*	*
*^	*	*
(12c#/L	4r	12ee#\L	.
12d#/	.	12cc#\	.
12e#/J	.	12g#\J	.
12f#/L	4r	12a#\L	.
12c#/	.	12cc#\	.
12f#/J	.	12a#\J	.
*v	*v	*	*
=31	=31	=31
4c#/) 4e#/	12g#\L	.
.	12cc#\	.
.	12dd#\J	.
4r	12ee#\L	.
.	12cc#\	.
.	12gg#\J	f
*clefF4	*	*
4A#\ (4e#\	4g#\ 4cc##\	.
4D#\ 4d#\)	4f#\ 4dd#\	.
=32	=32	=32
2G#\ 2d#\	2f#/ 2b#/	.
2GG#\ 2D#\ 2F#\	16f#/LL	p
.	16g#/	.
.	16f#/	.
.	16e#/JJ	.
.	16f#/LL	.
.	16dd#/	.
.	16cc#/	.
.	16b#/JJ	.
=33	=33	=33
4C#\ 4E#\	16cc#\LL	.
.	16g#\	.
.	16cc#\	.
.	16ee#\JJ	.
4r	16gg#\LL	.
.	16ccc#\	.
.	16eee#\	.
.	16ddd#\JJ	.
*clefG2	*	*
4a#\ (4ee#\	4gg#'\ (4ccc##'\	f
4d#\ 4dd#\)	4ff#\ 4ddd#\)	.
=34	=34	=34
2g#\ 2dd#\	2ff#\ 2bb#\	.
*clefF4	*	*
2G#\ 2d#\ 2f#\	16ff#\LL	p
.	16gg#\	.
.	16ff#\	.
.	16ee#\JJ	.
.	16ff#\LL	.
.	16ddd#\	.
.	16ccc#\	.
.	16bb#\JJ	.
=35	=35	=35
4c#\ 4e#\	16ccc#\LL	.
.	16gg#\	.
.	16ee#\	.
.	16cc#\JJ	.
4r	16g#/LL	.
.	16cc#/	.
.	16g#/	.
.	16e#/JJ	.
2GG#\ 2D#\ 2F#\	16f#/LL	.
.	16g#/	.
.	16f#/	.
.	16e#/JJ	.
.	16f#/LL	.
.	16dd#/	.
.	16cc#/	.
.	16b#/JJ	.
=36	=36	=36
4C#\ 4E#\	16cc#/LL	.
.	16g#/	.
.	16e#/	.
.	16c#/JJ	.
4r	16G#/LL	.
.	16c#/	.
.	16G#/	.
.	16E#/JJ	p
16FF#/LL	4r	.
16GG#/	.	.
16FF#/	.	.
16EE#/JJ	.	.
16FF#/LL	4G#/ 4B#/ 4d#/ 4f#/	p
16GG#/	.	.
16AA#/	.	.
16BB#/JJ	.	.
=37	=37	=37
16C#\LL	4r	.
16D#\	.	.
16E#\	.	.
16F#\JJ	.	.
16G#\LL	4B#/ 4d#/ 4f#/	.
16F#\	.	.
16E#\	.	.
16D#\JJ	.	.
16C#/LL	4r	.
16BB#/	.	.
16AA#/	.	.
16GG#/JJ	.	.
16AA#/LL	4B#/ 4d#/ 4f#/ 4g#/	.
16GG#/	.	.
16AA#/	.	.
16BB#/JJ	.	.
=38	=38	=38
*>A1	*>A1	*>A1
16C#\LL	4r	.
16D#\	.	.
16E#\	.	.
16F#\JJ	.	.
16G#\LL	4Bn/ 4c#/ 4e#/ 4g#/	p
16F#\	.	.
16E#\	.	.
16F#\JJ	.	.
16G#\LL	4r	.
16F#\	.	.
16E#\	.	.
16D#\JJ	.	.
16C#/LL	(8.A#/ 8.a#/L	.
16BB/	.	.
16AA#/	.	.
16GG#/JJ	16B/) 16b/Jk	.
=39	=39	=39
(8FF#\L	4c#/ (4cc#/	.
8F#\	.	.
8A#\	4c#/ 4f#/	.
8F#\J	.	.
8B\L	4c#/ 4e#/	.
8F#\	.	.
8A#\	4c#/ 4f#/)	.
8F#\J)	.	.
=40:|!	=40:|!	=40:|!
*>A2	*>A2	*>A2
16C#\LL	4r	.
16D#\	.	.
16E#\	.	.
16F#\JJ	.	.
16G#\LL	4Bn/ 4c#/ 4e#/ 4g#/	p
16An\	.	.
16B\	.	.
16c#\JJ	.	.
16dn\LL	4r	.
16c#\	.	.
16B\	.	.
16A\JJ	.	.
16c#\LL	(8.an/L	.
16B\	.	.
16A\	.	.
16G#\JJ	16b/Jk)	.
=41!|:	=41!|:	=41!|:
*>B	*>B	*>B
8FF#\ 8F#\	(4cc#\	.
8F#\L	.	.
8An\	4c#/ 4f#/	.
8F#\J	.	.
8B\L	4c#/ 4e#/	.
8F#\	.	.
8A\	4c#/ 4f#/)	.
8F#\J	.	.
=42	=42	=42
*^	*	*
8BB/L	4r	2.dn/ 2.f#/ 2.ddn/	<
8F#/	.	.	.
8B/	4r	.	.
8F#/J	.	.	.
8B/L	4r	.	.
8F#/	.	.	.
8An/	4AAn\	4d/ 4f#/ 4dd/	.
8F#/J	.	.	.
=43	=43	=43	=43
*	*	*^	*
8G#/L	4GG#\	(2ddn/	2b\	.
8En/	.	.	.	.
8F#/	4FF#\	.	.	.
8E/J	.	.	.	.
8EEn/L	4r	4.een/	4g#\	>
8E/	.	.	.	.
8GG#/	4r	.	4en\	.
8G#/J	.	8b/)	.	.
*v	*v	*	*	*
*	*v	*v	*
=44	=44	=44
4AAn\ 4An\	16cc#\LL	p
.	16een\	.
.	16cc#\	.
.	16ee\JJ	.
4r	16cc#\LL	.
.	16ee\	.
.	16cc#\	.
.	16ee\JJ	.
*clefG2	*	*
4g#/	16cc#\LL	pp
.	16ee\	.
.	16cc#\	.
.	16ee\JJ	.
4r	16cc#\LL	.
.	16ee\	.
.	16cc#\	.
.	16ee\JJ	.
=45	=45	=45
*	*^	*
4f##/	4r	16cc#\LL	.
.	.	16dd#\	.
.	.	16cc#\	.
.	.	16dd#\JJ	.
*clefF4	*	*	*
(8.BB/L	4r	16b\LL	.
.	.	16dd#\	.
.	.	16b\	.
16C#/Jk)	.	16dd#\JJ	.
(4D#/	4r	16b\LL	.
.	.	16dd#\	.
.	.	16b\	.
.	.	16dd#\JJ	.
4GG#/)	(8.bb/L	16b\LL	f
.	.	16dd#\	.
.	.	16b\JJ	.
.	16ccc#/Jk)	16r	.
*	*v	*v	*
=46	=46	=46
16G#\ 16B\LL	4dd#\ (4ddd#\	f
16d#\	.	.
16G#\ 16B\	.	.
16d#\JJ	.	.
16G#\ 16B\LL	4g#\ 4gg#\	.
16d#\	.	.
16G#\ 16B\	.	.
16d#\JJ	.	.
16A#\ 16c#\LL	4f##\ 4ff##\	.
16d#\	.	.
16A#\ 16c#\	.	.
16d#\JJ	.	.
16G#\ 16B\LL	4g#\ 4gg#\)	.
16d#\	.	.
16G#\ 16B\	.	.
16d#\JJ	.	.
*clefG2	*	*
=47	=47	=47
*^	*	*
4c##/ 4e#/	4r	16gg#\LL	.
.	.	16bb\	.
.	.	16aa#\	.
.	.	16gg#\JJ	.
4r	4r	16gg#\LL	p
.	.	16bb\	.
.	.	16aa#\	.
.	.	16gg#\JJ	.
4r	4r	16gg#\LL	.
.	.	16bb\	.
.	.	16aa#\	.
.	.	16gg#\JJ	.
(8.e#/L	4c##\	16gg#\LL	.
.	.	16bb\	.
.	.	16aa#\	.
16f#/Jk	.	16gg#\JJ	.
*v	*v	*	*
=48	=48	=48
4c##/ 4e#/ 4g#/)	16gg#\LL	.
.	16bb\	.
.	16aa#\	.
.	16gg#\JJ	.
4r	16bb\LL	.
.	16gg#\	.
.	16ff#\	.
.	16ee#\JJ	.
4r	16bb\LL	.
.	16gg#\	.
.	16ff#\	.
.	16ee#\JJ	.
(8.c##/ 8.e#/L	16aa#\LL	.
.	16gg#\	.
.	16ff#\	.
16a#/Jk)	16ee#\JJ	.
=49	=49	=49
8d#/ 8f#/	16ff#\LL	.
.	16aa#\	.
8r	16gg#\	.
.	16ff#\JJ	.
*clefF4	*	*
8.D#\ (8.F#\L	16gg#\LL	.
.	16ff#\	.
.	16ee#\	.
16A#\Jk)	16dd#\JJ	.
8E#\ 8G#\	16cc##\LL	.
.	16ee#\	.
8r	16dd#\	.
.	16cc##\JJ	.
*clefG2	*	*
(8.c##/ 8.e#/L	16aa#\LL	.
.	16gg#\	.
.	16ff#\	.
16a#/Jk)	16ee#\JJ	.
=50	=50	=50
8d#/ 8f#/	16ff#\LL	.
.	16aa#\	.
8r	16gg#\	.
.	16ff#\JJ	.
*clefF4	*	*
8.D#\ (8.F#\L	16gg#\LL	.
.	16ff#\	.
.	16ee#\	.
16A#\Jk)	16dd#\JJ	.
8D#\ 8F#\ 8G#\	16b#\LL	.
.	16dd#\	.
8r	16cc#\	.
.	16b#\JJ	.
*clefG2	*	*
(8.B#/ 8.d#/L	16gg#\LL	.
.	16ff#\	.
.	16een\	.
16g#/Jk)	16dd#\JJ	.
=51	=51	=51
8c#/ 8en/	16een\LL	.
.	16gg#\	.
8r	16ff#\	.
.	16ee\JJ	.
*clefF4	*	*
8.C#\ (8.En\L	16ff#\LL	.
.	16ee\	.
.	16dd#\	.
16G#\Jk)	16cc#\JJ	.
8D#\ 8F#\	16b#\LL	.
.	16dd#\	.
8r	16cc#\	.
.	16b#\JJ	.
*clefG2	*	*
(8.B#/ 8.d#/L	16gg#\LL	.
.	16ff#\	.
.	16ee\	.
16g#/Jk)	16dd#\JJ	.
=52	=52	=52
8c#/ 8en/	16een\LL	.
.	16gg#\	.
8r	16ff#\	.
.	16ee\JJ	.
*clefF4	*	*
8.C#\ (8.En\L	16ff#\LL	.
.	16ee\	.
.	16dd#\	.
16G#\Jk)	16cc#\JJ	.
8C#\ 8E\ 8F#\	16a#\LL	.
.	16cc#\	.
8r	16bn\	.
.	16a#\JJ	.
*clefG2	*	*
(8.A#/ 8.c#/L	16ff#\LL	.
.	16ee\	.
.	16dd#\	.
16f#/Jk)	16cc#\JJ	.
=53	=53	=53
8B/ 8d#/	16b\LL	.
.	16dd#\	.
8r	16cc#\	.
.	16b\JJ	.
*clefF4	*	*
(8.AA#/ 8.C#/L	16ff#\LL	.
.	16een\	.
.	16dd#\	.
16F#/Jk)	16cc#\JJ	.
8BB/ 8D#/	16b\LL	.
.	16dd#\	.
8r	16cc#\	.
.	16b\JJ	.
*clefG2	*	*
16f#/LL	16ff#\LL	<
16en/	16ee\	.
16d#/	16dd#\	.
16c#/JJ	16cc#\JJ	.
=54	=54	=54
8B/	16b\LL	.
.	16dd#\	.
8r	16cc#\	.
.	16b\JJ	.
16b/LL	16bb\LL	.
16a#/	16aa#\	.
16g#/	16gg#\	.
16f#/JJ	16ff#\JJ	.
8e#/	16ee#\LL	.
.	16gg#\	.
8r	16ff#\	.
.	16ee#\JJ	.
16b/LL	16bb\LL	.
16a#/	16aa#\	.
16g#/	16gg#\	.
16f#/JJ	16ff#\JJ	.
=55	=55	=55
8e#/	16ee#\LL	.
.	16gg#\	.
8r	16ff#\	.
.	16ee#\JJ	.
16dd#\LL	16ddd#\LL	.
16cc#\	16ccc#\	.
16b\	16bb\	.
16a#\JJ	16aa#\JJ	.
16g#/LL	16gg#\LL	.
16b/	16bb\	.
16a#/	16aa#\	.
16g#/JJ	16gg#\JJ	.
16f#/LL	16ff#\LL	.
16e#/	16ee#\	.
16d#/	16dd#\	.
16c#/JJ	16cc#\JJ	.
*clefF4	*	*
=56	=56	=56
16B\LL	16b\LL	.
16d#\	16dd#\	.
16c#\	16cc#\	.
16B\JJ	16b\JJ	.
16A#\LL	16a#/LL	.
16G#\	16g#/	.
16F#\	16f#/	.
16E#\JJ	16e#/JJ	.
16B\LL	16b/LL	.
16A#\	16a#/	.
16G#\	16g#/	.
16F#\JJ	16f#/JJ	.
16E#\LL	16e#/LL	.
16D#\	16d#/	.
16C#\	16c#/	.
16BB#\JJ	16B#/JJ	.
=57	=57	=57
*^	*^	*
2C#/	1C#	2c#/	1c#	ff
2E#/	.	2e#/	.	.
*v	*v	*	*	*
*	*v	*v	*
=58	=58	=58
12G#\L	2.c#/ 2.e#/ 2.g#/	>
12A#\	.	.
12G#\J	.	.
12F#\L	.	.
12E#\	.	.
12D#\J	.	.
12C#\L	.	.
12D#\	.	.
12C#\J	.	.
12BBn/L	(8.f#/ 8.a#/L	.
12AA#/	.	.
12GG#/J	.	.
.	16g#/) 16b/Jk	.
=59	=59	=59
(8FF#\L	4c#/ 4a#/ (4cc#/	.
8F#\	.	.
8A#\	4c#/ 4f#/	.
8F#\J	.	.
8B\L	4c#/ 4e#/	.
8F#\	.	.
8A#\	4c#/ 4f#/)	.
8F#\J)	.	.
=60	=60	=60
8G#\L	2.B/ 2.c#/ 2.e#/ 2.b/	.
8C#\	.	.
8G#\	.	.
8C#\J	.	.
8G#\L	.	.
8C#\	.	.
8E#\	4G#/ 4c#/ (4g#/	.
8C#\J	.	.
=61	=61	=61
*^	*	*
8FF#/L	4r	4A#/ 4c#/ 4a#/	<
8F#/	.	.	.
8BB/	4r	4d#/ 4dd#/	.
8F#/J	.	.	.
8AA#/L	4r	4c#/ 4cc#/	.
8F#/	.	.	.
8D#/	4FF#\	4f#/ 4ff#/	.
8F#/J	.	.	.
=62	=62	=62	=62
8C#/L	4FF#\	4e#/ 4ee#/	>
8F#/	.	.	.
8BB/	4FF#\	4d#/ 4dd#/)	.
8F#/J	.	.	.
8AA#/L	4FF#\	4c#/ 4cc#/	.
8F#/J	.	.	.
4r	4r	16a#/LL	.
.	.	16b/	.
.	.	16a#/	.
.	.	16f#/JJ	.
*v	*v	*	*
=63	=63	=63
4r	16b/LL	.
.	16cc#/	.
.	16b/	.
.	16g#/JJ	.
16C#\LL	4e#/	.
16E#\	.	.
16G#\	.	.
16B\JJ	.	.
4C#/	4r	.
4r	16b/LL	.
.	16cc#/	.
.	16b/	.
.	16g#/JJ	.
=64	=64	=64
4r	16cc#\LL	.
.	16dd#\	.
.	16cc#\	.
.	16a#\JJ	.
16AA#\LL	4f#/	.
16C#\	.	.
16F#\	.	.
16A#\JJ	.	.
4AA#/	4r	.
4r	16a#/LL	.
.	16b/	.
.	16a#/	.
.	16f#/JJ	.
=65	=65	=65
4r	16cc#\LL	.
.	16dd#\	.
.	16cc#\	.
.	16a#\JJ	.
16D#\LL	4f##/	.
16F##\	.	.
16A#\	.	.
16c#\JJ	.	.
4D#/	4r	.
4r	16cc#\LL	.
.	16dd#\	.
.	16cc#\	.
.	16a#\JJ	.
=66	=66	=66
*clefF4	*clefG2	*clefG2
*k[f#c#g#d#a#e#]	*k[f#c#g#d#a#e#]	*k[f#c#g#d#a#e#]
4r	16dd#\LL	.
.	16een\	.
.	16dd#\	.
.	16b\JJ	.
16BB\LL	4g#/	.
16D#\	.	.
16G#\	.	.
16B\JJ	.	.
4BB/	4r	.
4GG#\ 4BB\ 4En\ 4G#\	(12eeen\L	f
.	12ddd#\	.
.	12ccc#\J	.
=67	=67	=67
2AAn\ 2C#\ 2F#\ 2An\	12bb\L	.
.	12aan\	.
.	12gg#\J	.
.	12ff#\L	.
.	12een\	.
.	12dd#\J	.
2BB\ 2F#\ 2A\ 2B\	12cc#\L	.
.	12b\	.
.	12a#\J	.
.	12b\L	.
.	12cc#\	.
.	12dd#\J)	.
=68	=68	=68
4En\ 4G#\ (4B\	4en\ 4g#\ 4b\ (4een\	ff
4BB\ 4D#\ 4F#\ 4B\	4f#\ 4b\ 4dd#\ 4ff#\	.
4EEn/ 4GG#/ 4BB/ 4E/)	4g#\ 4b\ 4ee\ 4gg#\)	.
4r	4r	.
=69	=69	=69
4En\ 4G#\	4B/ 4en/ 4g#/	p
4r	4r	.
4AAn\ 4C#\ 4F#\	4c#/ 4f#/ 4an/	.
4r	4r	.
=70	=70	=70
4B\ 4d#\ (4f#\	4b\ 4dd#\ (4ff#\	f
4G#\ 4B\ 4c#\ 4e#\	4b\ 4cc#\ 4ee#\ 4gg#\	.
4F#\ 4An\ 4c#\ 4f#\)	4an\ 4cc#\ 4ff#\ 4aan\)	.
4r	4r	.
=71	=71	=71
4F#\ 4An\	4c#/ 4f#/ 4an/	p
4r	4r	.
4BB\ 4G#\	4dn/ 4g#/ 4b/	.
4r	4r	.
=72	=72	=72
4c#\ (4e#\	4b\ 4cc#\ 4ee#\ (4gg#\	f
4F#\ 4c#\ 4en\	4a#\ 4cc#\ 4een\ 4aa#\	.
4B\ 4dn\)	4b\ 4ddn\ 4bb\)	.
4r	4r	.
=73	=73	=73
4B\ 4dn\	4f#\ 4b\ 4ddn\	p
4r	4r	.
4En\ 4Gn\ 4c#\	4gn\ 4cc#\ 4een\	.
4r	4r	.
=74	=74	=74
4F#\ 4A#\ (4c#\	4a#\ 4cc#\ 4een\ (4aa#\	f
4BB\ 4F#\ 4B\	4b\ 4ddn\ 4bb\	.
4AA#\ 4F#\ 4A#\)	4cc#\ 4ee\ 4ccc#\)	.
4r	4r	.
=75	=75	=75
4c#\ (4en\	4a#\ (4cc#\	p
4B\ 4d#\	4b\ 4dd#\	.
4A#\ 4c#\)	4cc#\ 4een\)	.
4r	4r	.
=76	=76	=76
4A#\ 4c#\	4f#\ 4a#\ 4cc#\	.
4r	4r	.
4F#\ 4A#\	4f#\ 4cc#\ 4een\	.
4r	4r	.
*clefG2	*	*
=77	=77	=77
4B/ 4d#/	4f#\ 4b\ 4dd#\	.
4r	16ff#\LL	.
.	16gg#\	.
.	16ff#\	.
.	16dd#\JJ	.
4r	[2bb\	.
4b\ (4dd#\	.	.
=78	=78	=78
2.cc#\ 2.een\)	4bb\]	.
.	8.aa#\L	.
.	16bb\Jk	.
.	4ccc#\	.
4cc#\ 4ee\	4aa#\	.
=79	=79	=79
*	*8va	*
2cc#\ (2dd#\	16ff##\LL	p
.	16eeen\	.
.	16ddd#\	.
.	16ff##\JJ	.
.	16ff##\LL	.
.	16eee\	.
.	16ddd#\	.
.	16ff##\JJ	.
4a#\ 4cc#\)	16ff##\LL	.
.	16eee\	.
.	16ddd#\	.
.	16ff##\JJ	.
(4d#/ 4a#/ 4cc#/	16ff##\LL	.
.	16eee\	.
.	16ddd#\	.
.	16ff##\JJ	.
=80	=80	=80
4d#/ 4g#/ 4b/	16gg#\LL	.
.	16eeen\	.
.	16ddd#\	.
.	16gg#\JJ	.
4c#/ 4f##/ 4a#/	16aa#\LL	.
.	16eee\	.
.	16ddd#\	.
.	16aa#\JJ	.
4B/) 4d#/ 4g#/	16bb\LL	.
.	16eee\	.
.	16ddd#\	.
.	16bb\JJ	.
4B/ 4d#/ 4g#/	16ggg#\LL	.
.	16ddd#\	.
.	16bb\	.
.	16gg#\JJ	.
=81	=81	=81
4Bn^/ 4d#^/ 4g#^/	16eee#\LL	.
.	16bb\	.
.	16gg#\	.
.	16eee#\JJ	.
4B/ 4c#/ 4g#/	16ggg#\LL	.
.	16bb\	.
.	16gg#\	.
.	16fff#\JJ	.
4B^/ 4d#^/ 4g#^/	16eee#\LL	.
.	16bb\	.
.	16gg#\	.
.	16eee#\JJ	.
4B/ 4c#/ 4g#/	16ggg#\LL	.
.	16bb\	.
.	16gg#\	.
.	16fff#\JJ	.
=82	=82	=82
4B^/ 4dn^/ 4g#^/	16eee#\LL	.
.	16bb\	.
.	16gg#\	.
.	16eee#\JJ	.
4B/ 4c#/ 4g#/	16ggg#\LL	.
.	16bb\	.
.	16gg#\	.
.	16ggg#\JJ	.
4r	16ccc#\LL	.
.	16bb\	.
.	16gg#\	.
.	16ccc#\JJ	.
4B/ 4d#/ 4g#/	16ddd#\LL	.
.	16bb\	.
.	16gg#\	.
.	16ddd#\JJ	.
=83	=83	=83
4B^/ 4dn^/ 4g#^/	16eee#\LL	.
.	16bb\	.
.	16gg#\	.
.	16eee#\JJ	.
4B/ 4c#/ 4g#/	16ggg#\LL	.
.	16bb\	.
.	16gg#\	.
.	16fff#\JJ	.
4B^/ 4d^/ 4g#^/	16eee#\LL	.
.	16bb\	.
.	16gg#\	.
.	16eee#\JJ	.
4B/ 4c#/ 4g#/	16ggg#\LL	.
.	16bb\	.
.	16gg#\	.
.	16fff#\JJ	.
=84	=84	=84
4B^/ 4dn^/ 4g#^/	16eee#\LL	.
.	16bb\	.
.	16gg#\	.
.	16eee#\JJ	.
4B/ 4c#/ 4g#/	16ggg#\LL	.
.	16bb\	.
.	16gg#\	.
.	16ggg#\JJ	.
4r	16ccc#\LL	.
.	16bb\	.
.	16gg#\	.
.	16ccc#\JJ	.
4B/ 4d#/ 4g#/	16ddd#\LL	.
.	16bb\	.
.	16gg#\	.
.	16ddd#\JJ	.
=85	=85	=85
4B/ 4c#/ 4g#/	(16eee#\LL	.
.	16ccc#\)	.
.	16gg#\	.
.	16eee#'\JJ	.
4A#/ 4c#/ 4f#/	(16fff#\LL	<
.	16ccc#\)	.
.	16ff#\	.
.	16fff#'\JJ	.
4A#/ 4c#/ 4f#/	16fff#\LL	.
.	(16ccc#\	.
.	16ff#\)	.
.	16fff#'\JJ	.
4A#/ 4c#/ 4f#/	(16fff#\LL	.
.	16ccc#\)	.
.	16ff#\	.
.	16fff#'\JJ	.
=86	=86	=86
4An/ 4cn/ 4f#/	(16fff#\LL	.
.	16bb#\)	.
.	16ff#\	.
.	16fff#'\JJ	.
4A/ 4c/ 4f#/	(16fff#\LL	.
.	16bb#\)	.
.	16ff#\	.
.	16fff#'\JJ	.
4A/ 4c/ 4f#/	(16fff#\LL	.
.	16bb#\)	.
.	16ff#\	.
.	16fff#'\JJ	.
4A/ 4c/ 4f#/	(16fff#\LL	.
.	16bb#\)	.
.	16ff#\	.
.	16fff#'\JJ	.
*clefF4	*	*
=87	=87	=87
4DDn/ 4FF#/ 4AAn/ 4Cn/	(16fff#\LL	f
.	16bb#\)	.
.	16ff#\	.
.	16fff#'\JJ	.
4DD/ 4FF#/ 4AA/ 4C/	(16fff#\LL	.
.	16bb#\	.
.	16ff#\)	.
.	16fff#'\JJ	.
4DD/ 4FF#/ 4AA/ 4C/	(16fff#\LL	.
.	16bb#\)	.
.	16ff#\	.
.	16fff#'\JJ	.
4DD/ 4FF#/ 4AA/ 4C/	(16fff#\LL	.
.	16bb#\	.
.	16ff#\)	.
.	16fff#'\JJ	.
=88	=88	=88
1C# 1G#	(16fff#\LL	ff
.	16bbn\)	.
.	16ff#\	.
.	16fff#'\JJ	.
.	(16fff#\LL	.
.	16bb\)	.
.	16ff#\	.
.	16fff#'\JJ	.
.	16eee#\LL	.
.	16bb\	.
.	16ee#\	.
.	16eee#'\JJ	.
.	(16eee#\LL	.
.	16bb\)	.
.	16ee#\	.
.	16eee#'\JJ	.
=89	=89	=89
4FF#/ 4F#/	4ff#\ 4aa#\ 4fff#\	.
*	*X8va	*
4r	4r	.
*clefG2	*	*
12f#/L	(12aa#\L	p
12g#/	12ff#\	.
12a#/J	12cc#\J	.
12b/L	12dd#\L	.
12f#/	12ff#\	.
12b/J	12dd#\J	.
=90	=90	=90
*^	*	*
4f#/ 4a#/	4r	12cc#\L	.
.	.	12ff#\	.
.	.	12gg#\J	.
4r	4r	12aa#\L	.
.	.	12ff#\	.
.	.	12ccc#\J	.
*v	*v	*	*
*clefF4	*	*
*^	*	*
4r	12F#\L	12aa#\L	.
.	12G#\	12ff#\	.
.	12A#\J	12cc#\J	.
12B/L	4C#\	12b\L	.
12G#/	.	12g#\	.
12c#/J	.	12cc#\J	.
*v	*v	*	*
=91	=91	=91
4F#\ 4A#\	4a#\)	.
4r	(12cc#\L	.
.	12ff#\	.
.	12gg#\J	.
*clefG2	*	*
12f#/L	12aa#\L	.
12g#/	12ff#\	.
12a#/J	12cc#\J	.
12b/L	12dd#\L	.
12f#/	12ff#\	.
12b/J	12dd#\J	.
=92	=92	=92
4f#/ 4a#/	12cc#\L	.
.	12ff#\	.
.	12gg#\J	.
4r	12aa#\L	.
.	12ff#\	.
.	12ccc#\J)	.
(4d#/ 4f##/ 4a#/	4cc#\ 4dd#\ (4ff##\	f
4G#/) 4B/ 4d#/ 4g#/	4b\ 4dd#\ 4gg#\)	.
=93	=93	=93
2c#/ 2e#/ 2g#/	2b\ 2cc#\ 2ee#\	.
*clefF4	*	*
2C#\ 2G#\ 2B\	16b\LL	p
.	16cc#\	.
.	16b\	.
.	16a#\JJ	.
.	16b\LL	.
.	16gg#\	.
.	16ff#\	.
.	16ee#\JJ	.
=94	=94	=94
4F#\ 4A#\	16ff#\LL	.
.	16cc#\	.
.	16a#\	.
.	16cc#\JJ	.
*	*8va	*
4r	16ff#\LL	.
.	16aa#\	.
.	16ccc#\	.
.	16fff#\JJ	.
*clefG2	*	*
4d#/ 4f##/ 4a#/ 4cc#/ [4dd#/	4ff##\ 4aa#\ 4ccc#\ 4ddd#\ (4fff##\	f
4g#/ 4b/ 4dd#/]	4gg#\ 4bb\ 4ddd#\ 4ggg#\)	.
=95	=95	=95
2c#/ 2e#/ 2g#/ 2b/ 2cc#/	2ee#\ 2gg#\ 2bb\ 2ccc#\ 2eee#\	.
*clefF4	*	*
2C#\ 2G#\ 2B\	16bb\LL	p
.	16ccc#\	.
.	16bb\	.
.	16aa#\JJ	.
.	16bb\LL	.
.	16ggg#\	.
.	16fff#\	.
.	16eee#\JJ	.
=96	=96	=96
4F#\ 4A#\	16fff#\LL	.
.	16ccc#\	.
.	16aa#\	.
.	16ff#\JJ	.
*	*X8va	*
4r	16cc#\LL	.
.	16ff#\	.
.	16cc#\	.
.	16a#\JJ	.
2CC#/ 2GG#/ 2BB/	16b\LL	.
.	16cc#\	.
.	16b\	.
.	16a#\JJ	.
.	16b\LL	.
.	16gg#\	.
.	16ff#\	.
.	16ee#\JJ	.
=97	=97	=97
4FF#/ 4AA#/	16ff#\LL	.
.	16cc#\	.
.	16a#\	.
.	16f#\JJ	.
4r	16c#/LL	.
.	16f#/	.
.	16c#/	.
.	16A#/JJ	.
16BB/LL	4r	p
16C#/	.	.
16BB/	.	.
16AA#/JJ	.	.
16BB/LL	4c#/ 4e#/ 4g#/ 4b/	.
16C#/	.	.
16D#/	.	.
16E#/JJ	.	.
=98	=98	=98
16F#\LL	4r	.
16G#\	.	.
16A#\	.	.
16B\JJ	.	.
16c#\LL	4e#/ 4g#/ 4b/	.
16B\	.	.
16A#\	.	.
16G#\JJ	.	.
16F#\LL	4r	.
16E#\	.	.
16D#\	.	.
16C#\JJ	.	.
16D#\LL	4e#/ 4g#/ 4b/ 4cc#/	.
16C#\	.	.
16D#\	.	.
16E#\JJ	.	.
=99	=99	=99
16F#\LL	4r	.
16G#\	.	.
16A#\	.	.
16B\JJ	.	.
16c#\LL	4f#/ 4a#/ 4cc#/	.
16d#\	.	.
16c#\	.	.
16B\JJ	.	.
16A#\LL	4r	.
16B\	.	.
16c#\	.	.
16B\JJ	.	.
16A#\LL	(8.a#/L	.
16B\	.	.
16A#\	.	.
16G#\JJ	16b/Jk)	.
=100	=100	=100
16F#\LL	4r	.
16G#\	.	.
16A#\	.	.
16B\JJ	.	.
16c#\LL	4en/ 4f#/ 4a#/ 4cc#/	.
16B\	.	.
16A#\	.	.
16G#\JJ	.	.
16F#\LL	4r	.
16A#\	.	.
16G#\	.	.
16F#\JJ	.	.
16En\LL	(8.A#/ 8.a#/L	.
16D#\	.	.
16C#\	.	.
16BB\JJ	16B/) 16b/Jk	.
=101	=101	=101
16AA#/LL	4c#/ 4en/ (4cc#/	<
16BB/	.	.
16C#/	.	.
16BB/JJ	.	.
16AA#\LL	4c#/ 4e/ 4f#/	.
16C#\	.	.
16En\	.	.
16F#\JJ	.	.
16Gn\LL	4c#/ 4e/ 4gn/	.
16E\	.	.
16C#\	.	.
16BB\JJ	.	.
16AA#\LL	4c#/ 4e/)	.
16C#\	.	.
16E\	.	.
16F#\JJ	.	.
=102	=102	=102
16Gn\LL	4en/ 4gn/ 4een/	.
16En\	.	.
16C#\	.	.
16BB\JJ	.	.
16AA#\LL	4e/ 4f#/ 4cc#/	.
16C#\	.	.
16F#\	.	.
16A#\JJ	.	.
16BB\LL	4dn/ 4f#/ 4ddn/	.
16Dn\	.	.
16F#\	.	.
16B\JJ	.	.
16D\LL	4d/ 4f#/ 4b/	.
16F#\	.	.
16B\	.	.
16dn\JJ	.	.
=103	=103	=103
16E#\LL	4b\ 4ddn\ 4bb\	.
16G#\	.	.
16B\	.	.
16dn\JJ	.	.
*clefG2	*	*
16e#/LL	4b\ 4dd\ 4gg#\	.
16g#/	.	.
16b/	.	.
16g#/JJ	.	.
16e#/LL	4gg#\ 4bb\ 4dddn\	mf
16g#/	.	.
16b/	.	.
16g#/JJ	.	.
16e#/LL	4gg#\ 4bb\ 4ccc#\	.
16g#/	.	.
16b/	.	.
16g#/JJ	.	.
=104	=104	=104
16e#/LL	4r	.
16b/	.	.
16a#/	.	.
16g#/JJ	.	.
16cc#/LL	4gg#\ 4bb\ 4ccc#\	p
16b/	.	.
16a#/	.	.
16g#/JJ	.	.
16f#/LL	4r	.
16cc#/	.	.
16b/	.	.
16a#/JJ	.	.
16ff#\LL	4aa#\ 4ccc#\	.
16ee#\	.	.
16dd#\	.	.
16cc#\JJ	.	.
=105	=105	=105
16b/LL	4r	.
16a#/	.	.
16dd#/	.	.
16cc#/JJ	.	.
16b/LL	4aa#\ 4ccc#\	<
16a#/	.	.
16g#/	.	.
16f#/JJ	.	.
16e#/LL	4r	.
16f#/	.	.
16g#/	.	.
16f#/JJ	.	.
16B#/LL	4aa#\ 4ccc#\	.
16c#/	.	.
16d#/	.	.
16c#/JJ	.	.
*clefF4	*	*
=106	=106	=106
16G##\LL	4r	.
16A#\	.	.
16Bn\	.	.
16A#\JJ	.	.
16E#\LL	4ff#'\ 4aa#'\ 4ccc#'\ 4fff#'\	f
16F#\	.	.
16G#\	.	.
16F#\JJ	.	.
16BB#/LL	4ff#'\ 4aa#'\ 4ccc#'\ 4fff#'\	.
16C#/	.	.
16D#/	.	.
16C#/JJ	.	.
16GG##/LL	4ff#'\ 4aa#'\ 4ccc#'\ 4fff#'\	.
16AA#/	.	.
16BBn/	.	.
16AA#/JJ	.	.
=107	=107	=107
*>B1	*>B1	*>B1
4FF#/	4ff#'\ 4aa#'\ 4ccc#'\ 4fff#'\	.
16E#\LL	4r	p
16F#\	.	.
16G#\	.	.
16F#\JJ	.	.
16E#\LL	4r	.
16F#\	.	.
16G#\	.	.
16F#\JJ	.	.
16E#\LL	(8.an/L	.
16F#\	.	.
16G#\	.	.
16F#\JJ	16b/Jk)	.
=108:|!	=108:|!	=108:|!
*>B2	*>B2	*>B2
4FF#/	4ff#'\ 4aa#'\ 4ccc#'\ 4fff#'\	.
4r	4r	.
2r	2r	.
==	==	==
*-	*-	*-
!!!ENC: Craig Stuart Sapp
!!!END: 2005/08/24/
!!!EEV: 2014/07/13/ (added ottavas)
